src/assets/svg/logo.svg

<?xml version="1.0" encoding="UTF-8" standalone="no"?>
<svg
   xmlns:dc="http://purl.org/dc/elements/1.1/"
   xmlns:cc="http://creativecommons.org/ns#"
   xmlns:rdf="http://www.w3.org/1999/02/22-rdf-syntax-ns#"
   xmlns:svg="http://www.w3.org/2000/svg"
   xmlns="http://www.w3.org/2000/svg"
   xmlns:sodipodi="http://sodipodi.sourceforge.net/DTD/sodipodi-0.dtd"
   xmlns:inkscape="http://www.inkscape.org/namespaces/inkscape"
   inkscape:version="1.0 (4035a4fb49, 2020-05-01)"
   sodipodi:docname="logo-v2.svg"
   id="svg10"
   viewBox="0 0 61.214 61.214"
   version="1.1"
   height="231.36"
   width="231.36">
  <metadata
     id="metadata16">
    <rdf:RDF>
      <cc:Work
         rdf:about="">
        <dc:format>image/svg+xml</dc:format>
        <dc:type
           rdf:resource="http://purl.org/dc/dcmitype/StillImage" />
      </cc:Work>
    </rdf:RDF>
  </metadata>
  <defs
     id="defs14" />
  <sodipodi:namedview
     inkscape:current-layer="svg10"
     inkscape:window-maximized="1"
     inkscape:window-y="-9"
     inkscape:window-x="71"
     inkscape:cy="115.68"
     inkscape:cx="115.68"
     inkscape:zoom="3.8035961"
     inkscape:snap-intersection-paths="true"
     inkscape:guide-bbox="true"
     showguides="true"
     showgrid="false"
     id="namedview12"
     inkscape:window-height="1321"
     inkscape:window-width="2320"
     inkscape:pageshadow="2"
     inkscape:pageopacity="0"
     guidetolerance="10"
     gridtolerance="10"
     objecttolerance="10"
     borderopacity="1"
     bordercolor="#666666"
     pagecolor="#ffffff">
    <sodipodi:guide
       id="guide841"
       orientation="0.99145196,0.13047224"
       position="28.241914,52.936198" />
  </sodipodi:namedview>
  <path
     inkscape:export-ydpi="205.16412"
     inkscape:export-xdpi="205.16412"
     inkscape:export-filename="C:\Users\federico\Google Drive\Personal\Trabajo\Emprendimientos\Automática\Web\automatica-web\public\favicon.png"
     transform="scale(0.26458333)"
     d="M 119.17188 17.5 L 131.75391 113.11523 L 173.12695 17.5 L 119.17188 17.5 z M 107.82422 39.517578 L 32.390625 213.85742 L 88.164062 213.85742 L 120.83203 138.35938 L 107.82422 39.517578 z "
     style="fill:#d25087;stroke:none;stroke-width:0.999987"
     id="path2" />
  <path
     inkscape:export-ydpi="205.16412"
     inkscape:export-xdpi="205.16412"
     inkscape:export-filename="C:\Users\federico\Google Drive\Personal\Trabajo\Emprendimientos\Automática\Web\automatica-web\public\favicon.png"
     id="path4"
     d="m 31.05,4.63 5.331,40.51 c 0.044,0.066 0.083,0.147 0.128,0.212 a 29.917,29.917 0 0 0 2.336,2.944 28.63,28.63 0 0 0 4.856,4.287 27.663,27.663 0 0 0 2.323,1.452 26.82,26.82 0 0 0 2.12,1.065 c 1.325,0.592 2.45,0.963 3.245,1.186 0.793,0.223 1.255,0.298 1.255,0.298 L 45.807,4.63 Z"
     strokeWidth="0.367"
     style="fill:#d25087;stroke:none" />
  <path
     inkscape:export-ydpi="205.16412"
     inkscape:export-xdpi="205.16412"
     inkscape:export-filename="C:\Users\federico\Google Drive\Personal\Trabajo\Emprendimientos\Automática\Web\automatica-web\public\favicon.png"
     id="path851"
     d="M 26.112432,6.1361655 31.449589,46.692949 33.945946,34.641559 29.494017,4.9388569 Z"
     style="fill:none;stroke:none;stroke-width:0.264583px;stroke-linecap:butt;stroke-linejoin:miter;stroke-opacity:1" />
</svg>

<svg
      xmlns="http://www.w3.org/2000/svg"
      width="231.36"
      height="231.36"
      version="1.1"
      viewBox="0 0 61.214 61.214"
    >
      <path
        fill="#d25087"
        stroke="none"
        strokeWidth="1"
        d="M119.172 17.5l12.582 95.615L173.127 17.5h-53.955zm-11.348 22.018l-75.433 174.34h55.773l32.668-75.499-13.008-98.841z"
        transform="scale(.26458)"
      ></path>
      <path
        fill="#d25087"
        stroke="none"
        d="M31.05 4.63l5.331 40.51c.044.066.083.147.128.212a29.917 29.917 0 002.336 2.944 28.63 28.63 0 004.856 4.287 27.663 27.663 0 002.323 1.452 26.82 26.82 0 002.12 1.065c1.325.592 2.45.963 3.245 1.186.793.223 1.255.298 1.255.298L45.807 4.63z"
      ></path>
      <path
        fill="none"
        stroke="none"
        strokeLinecap="butt"
        strokeLinejoin="miter"
        strokeOpacity="1"
        strokeWidth="0.265"
        d="M26.112 6.136l5.338 40.557 2.496-12.051-4.452-29.703z"
      ></path>
    </svg>
